findly-builder/apps/searchassist/src/assets/icons/sidemenu/help.svg

<svg width="16" height="16" viewBox="0 0 16 16" fill="none" xmlns="http://www.w3.org/2000/svg">
<path d="M5.69526 6.47415C5.69526 4.48164 7.67206 3.57416 9.12761 4.29443C10.047 4.74941 10.6076 5.83968 10.4232 6.73224C10.2861 7.39542 9.99929 7.78333 9.42064 8.25647L9.19742 8.43352C8.63243 8.87676 8.47376 9.10649 8.47376 9.63871C8.47376 9.89663 8.26468 10.1057 8.00675 10.1057C7.74883 10.1057 7.53974 9.89663 7.53974 9.63871C7.53974 8.80098 7.8206 8.35022 8.50337 7.79265L8.72365 7.61811C9.22562 7.2234 9.41718 6.98486 9.50847 6.54318C9.60526 6.07488 9.25908 5.40161 8.71335 5.13157C7.82816 4.69353 6.62928 5.24389 6.62928 6.47415C6.62928 6.73207 6.42019 6.94116 6.16227 6.94116C5.90434 6.94116 5.69526 6.73207 5.69526 6.47415Z" fill="#202124"/>
<path d="M8.61408 11.3812C8.61408 11.6956 8.35925 11.9504 8.04491 11.9504C7.73057 11.9504 7.47574 11.6956 7.47574 11.3812C7.47574 11.0669 7.73057 10.8121 8.04491 10.8121C8.35925 10.8121 8.61408 11.0669 8.61408 11.3812Z" fill="#202124"/>
<path fill-rule="evenodd" clip-rule="evenodd" d="M7.99978 0.888672C4.07242 0.888672 0.888672 4.07242 0.888672 7.99978C0.888672 11.9271 4.07242 15.1109 7.99978 15.1109C11.9271 15.1109 15.1109 11.9271 15.1109 7.99978C15.1109 4.07242 11.9271 0.888672 7.99978 0.888672ZM7.99978 1.94217C11.3453 1.94217 14.0574 4.65426 14.0574 7.99978C14.0574 11.3453 11.3453 14.0574 7.99978 14.0574C4.65426 14.0574 1.94217 11.3453 1.94217 7.99978C1.94217 4.65426 4.65426 1.94217 7.99978 1.94217Z" fill="#202124"/>
</svg>

<svg width="16" height="16" fill="none" xmlns="http://www.w3.org/2000/svg"><path d="M5.695 6.474c0-1.992 1.977-2.9 3.433-2.18.919.455 1.48 1.546 1.295 2.438-.137.663-.424 1.051-1.002 1.524l-.224.178c-.565.443-.723.672-.723 1.205a.467.467 0 1 1-.934 0c0-.838.28-1.289.963-1.846l.22-.175c.503-.395.694-.633.785-1.075.097-.468-.249-1.141-.795-1.411-.885-.438-2.084.112-2.084 1.342a.467.467 0 0 1-.934 0Zm2.919 4.907a.57.57 0 1 1-1.138 0 .57.57 0 0 1 1.138 0Z" fill="#202124"/><path fill-rule="evenodd" clip-rule="evenodd" d="M8 .889A7.111 7.111 0 1 0 8 15.11 7.111 7.111 0 0 0 8 .889Zm0 1.053a6.058 6.058 0 1 1 0 12.115A6.058 6.058 0 0 1 8 1.942Z" fill="#202124"/></svg>
